X: 2112
T: The Stoorie Miller
P: Mrs Lumsden of Achindores
C:Wm. Marshall
R:Strathspey (8x32)
B:RSCDS 21-12
Z:Anselm Lingnau <anselm@strathspey.org>
M:C
L:1/8
K:Eb
[dB]|"Eb"[e2G2] B>G E>B G<E|"Fm/Ab"C<FFG [AC]G/F/ "Bb"[DA,]C/B,/|\
     "Eb"e2 B>G E>B G>E|"Fm"CF "Bb"[DA,]C/B/ "Eb"[E2G,2] E [dB]|
     "Eb"[e2G2] B>G E>B G<E|"Fm/Ab"C<FFG [AC]G/F/ "Bb"[DA,]C/B,/|\
     "Eb"e2 B>G E>B G>E|"Fm"CF "Bb"[DA,]C/B/ "Eb"[E2G,2] E||
B/c/d|"Eb"[eG]<e eg "Fm"c>f"Bb"dB|"Eb"e<eeg B<e GE|\
     "Fm"A<c "Eb"G<B "Fm"C<F "Bb"D<B,|"Fm"CF "Bb"[DA,]C/B,/ "Eb"[E2G,2][E2G,2]|
     "Eb"[eG]<e eg "Fm"c>f"Bb"[dA]B|"Eb"e<eeg B<e G<E|\
     "Fm"A<c "Eb"G<B "Fm"C<F "Bb"D<B,|"Fm"C<F "Bb"[DA,]C/B,/ "Eb"[E2G,2][EG,]|]
%%center Book21/2112-Stoorie_Miller-AL.abc

%%newpage
%%center OTHER TRANSCRIPTIONS
%%sep 3 1 500
%%sep 1 1 500

%%sep 1 1 500
%%sep 1 1 500

